!!!OTL: ICH GING IM MONDENSCHIMMER
!!!ARE: Europa, Mitteleuropa, Deutschland
!!!SCT: F0918
!!!YEM: Copyright 1995, estate of Helmut Schaffrath.
**kern
*ICvox
*Ivox
*M2/4
*k[b-e-a-]
*E-:
{8b-
=1
8b-
16g
16g
16b-
16a-
16g
16f
=2
16f
16e-
8e-}
{4g
=3
8cc
8f
8f
16g
16a-
=4
8a-
8g
8r}
{8b-
=5
8b-
8an
8.ee-
16ee-
=6
16dd
16a-
8a-}
{4g
=7
8cc
16a-
16f
8e-
16d
16f
=8
8f
8e-
8r}
==
!!!AGN: Liebes - Lied
!!!ONB: ESAC (Essen Associative Code) Database: FINK
!!!AMT: simple duple
!!!AIN: vox
!!!EED: Helmut Schaffrath
!!!EEV: 1.0
*-
